icon/arrow-right.svg

<?xml version="1.0" encoding="UTF-8"?>
<svg viewBox="0 0 18 18" version="1.1" xmlns="http://www.w3.org/2000/svg" xmlns:xlink="http://www.w3.org/1999/xlink">
    <title>icon/right-arrow</title>
    <g id="icon/right-arrow" stroke="none" stroke-width="1" fill="none" fill-rule="evenodd">
        <path d="M9,17 C9.88426888,17 10.7262647,16.8655579 11.5259875,16.5966736 C12.3257103,16.3277893 13.0589051,15.9487179 13.7255717,15.4594595 C14.3922384,14.970201 14.970201,14.3922384 15.4594595,13.7255717 C15.9487179,13.0589051 16.3277893,12.3257103 16.5966736,11.5259875 C16.8655579,10.7262647 17,9.88426888 17,9 C17,8.11573112 16.8655579,7.27373527 16.5966736,6.47401247 C16.3277893,5.67428967 15.9487179,4.94109494 15.4594595,4.27442827 C14.970201,3.60776161 14.3922384,3.02979903 13.7255717,2.54054054 C13.0589051,2.05128205 12.3257103,1.67221067 11.5259875,1.4033264 C10.7262647,1.13444213 9.88426888,1 9,1 C8.11573112,1 7.27373527,1.13444213 6.47401247,1.4033264 C5.67428967,1.67221067 4.94109494,2.05128205 4.27442827,2.54054054 C3.60776161,3.02979903 3.02979903,3.60776161 2.54054054,4.27442827 C2.05128205,4.94109494 1.67221067,5.67428967 1.4033264,6.47401247 C1.13444213,7.27373527 1,8.11573112 1,9 C1,9.88426888 1.13444213,10.7262647 1.4033264,11.5259875 C1.67221067,12.3257103 2.05128205,13.0589051 2.54054054,13.7255717 C3.02979903,14.3922384 3.60776161,14.970201 4.27442827,15.4594595 C4.94109494,15.9487179 5.67428967,16.3277893 6.47401247,16.5966736 C7.27373527,16.8655579 8.11573112,17 9,17 Z M9,16.035343 C8.22106722,16.035343 7.48024948,15.9168399 6.77754678,15.6798337 C6.07484407,15.4428274 5.43035343,15.1088011 4.84407484,14.6777547 C4.25779626,14.2467082 3.74913375,13.7380457 3.31808732,13.1517672 C2.88704089,12.5654886 2.55370755,11.9209979 2.31808732,11.2182952 C2.08246708,10.5155925 1.96465696,9.77616078 1.96465696,9 C1.96465696,8.22106722 2.08246708,7.48024948 2.31808732,6.77754678 C2.55370755,6.07484407 2.88704089,5.43035343 3.31808732,4.84407484 C3.74913375,4.25779626 4.25779626,3.74913375 4.84407484,3.31808732 C5.43035343,2.88704089 6.07484407,2.55370755 6.77754678,2.31808732 C7.48024948,2.08246708 8.22106722,1.96465696 9,1.96465696 C9.77893278,1.96465696 10.5197505,2.08246708 11.2224532,2.31808732 C11.9251559,2.55370755 12.5696466,2.88704089 13.1559252,3.31808732 C13.7422037,3.74913375 14.2508663,4.25779626 14.6819127,4.84407484 C15.1129591,5.43035343 15.4462924,6.07484407 15.6819127,6.77754678 C15.9175329,7.48024948 16.035343,8.22106722 16.035343,9 C16.035343,9.77616078 15.9175329,10.5155925 15.6819127,11.2182952 C15.4462924,11.9209979 15.1129591,12.5654886 14.6819127,13.1517672 C14.2508663,13.7380457 13.7422037,14.2467082 13.1559252,14.6777547 C12.5696466,15.1088011 11.9251559,15.4428274 11.2224532,15.6798337 C10.5197505,15.9168399 9.77893278,16.035343 9,16.035343 Z M9.55717256,12.7255717 L13.2827443,9 L9.55717256,5.27442827 L8.91683992,5.91476091 L11.5530146,8.54261954 L4.72557173,8.54261954 L4.72557173,9.45738046 L11.5530146,9.45738046 L8.91683992,12.0935551 L9.55717256,12.7255717 Z" id="" fill="#000000" fill-rule="nonzero"></path>
    </g>
</svg>

<svg viewBox="0 0 18 18" xmlns="http://www.w3.org/2000/svg"><path d="M9 17c.884 0 1.726-.134 2.526-.403a8.005 8.005 0 0 0 3.933-2.871c.49-.667.869-1.4 1.138-2.2.269-.8.403-1.642.403-2.526 0-.884-.134-1.726-.403-2.526a8.005 8.005 0 0 0-2.871-3.933 8.005 8.005 0 0 0-2.2-1.138A7.873 7.873 0 0 0 9 1c-.884 0-1.726.134-2.526.403a8.005 8.005 0 0 0-3.933 2.871c-.49.667-.869 1.4-1.138 2.2A7.873 7.873 0 0 0 1 9c0 .884.134 1.726.403 2.526a8.005 8.005 0 0 0 2.871 3.933c.667.49 1.4.869 2.2 1.138.8.269 1.642.403 2.526.403Zm0-.965c-.779 0-1.52-.118-2.222-.355a7.042 7.042 0 0 1-1.934-1.002 7.113 7.113 0 0 1-1.526-1.526A6.931 6.931 0 0 1 1.965 9a6.944 6.944 0 0 1 1.353-4.156 7.113 7.113 0 0 1 1.526-1.526A6.944 6.944 0 0 1 9 1.965a6.944 6.944 0 0 1 4.156 1.353c.586.431 1.095.94 1.526 1.526A6.944 6.944 0 0 1 16.035 9a6.931 6.931 0 0 1-1.353 4.152 7.113 7.113 0 0 1-1.526 1.526 7.042 7.042 0 0 1-1.934 1.002A6.907 6.907 0 0 1 9 16.035Zm.557-3.31L13.283 9 9.557 5.274l-.64.64 2.636 2.629H4.726v.914h6.827l-2.636 2.637.64.632Z" fill="#000" fill-rule="nonzero"/></svg>
